!!!OTL: Quartett in d für 2 Violinen, Viola und Violoncello, 1. Satz, KV 421/01
!!!system-decoration: [(s1,s2,s3,s4)]
**kern	**kern	**kern	**kern	**dynam	**kern	**kern	**kern	**kern	**dynam	**kern	**kern	**kern	**kern	**dynam	**kern	**kern	**kern	**kern	**dynam
*part4	*part4	*part4	*part4	*part4	*part3	*part3	*part3	*part3	*part3	*part2	*part2	*part2	*part2	*part2	*part1	*part1	*part1	*part1	*part1
*staff16	*staff15	*staff14	*staff13	*	*staff12	*staff11	*staff10	*staff9	*	*staff8	*staff7	*staff6	*staff5	*	*staff4	*staff3	*staff2	*staff1	*
*I"Violoncello	*	*	*	*	*I"Viola	*	*	*	*	*I"Violino II	*	*	*	*	*I"Violino I	*	*	*	*
*clefF4	*	*clefC3	*	*clefG2	*	*clefG2	*
*k[b-]	*	*k[b-]	*	*k[b-]	*	*k[b-]	*
*M4/4	*	*M4/4	*	*M4/4	*	*M4/4	*
(>2D	sotto voce	8r	sotto voce	8r	sotto voce	(2dd	sotto voce
.	.	(8F'L	.	(8A'L	.	.	.
.	.	8F'	.	8A'	.	.	.
.	.	8F'J)	.	8A'J)	.	.	.
2C	.	8r	.	8r	.	4.d)	.
.	.	(8F'L	.	(8A'L	.	.	.
.	.	8F'	.	8A'	.	.	.
.	.	8F'J)	.	8A'J)	.	8d	.
=2	=2	=2	=2	=2	=2	=2	=2
2BB-y	.	8r	.	8r	.	8.dLT	.
.	.	(8F'L	.	(8B-y'L	.	.	.
.	.	.	.	.	.	16c#J	.
.	.	8F'	.	8B-y'	.	8dL	.
.	.	8F'J)	.	8B-y'J)	.	8dJ	.
2AA	.	8r	.	8r	.	(>4.d	.
.	.	(8A'L	.	8fL	.	.	.
.	.	8A'	.	(8f	.	.	.
.	.	8A'J)	.	8dJ)	.	8ff)	.
=3	=3	=3	=3	=3	=3	=3	=3
2GG	.	8r	.	8r	.	[4ff	.
.	.	(8B-y'L	.	(8dL	.	.	.
.	.	8B-y'	.	8c#	.	(16ffL_	.
.	.	.	.	.	.	16ee)	.
.	.	8B-y'J)	.	8eJ)	.	(16dd	.
.	.	.	.	.	.	16cc#J)	.
2AA)	.	8r	.	8r	.	(4b-y	.
.	.	(8E'L	.	(8c#y'L	.	.	.
.	.	8E'	.	8c#y'	.	8aL)	.
.	.	8E'J)	.	8c#y'J)	.	8gJ	.
=4	=4	=4	=4	=4	=4	=4	=4
4DD	.	4D	.	8dL	.	8fL	.
.	.	.	.	(8g	.	(8b-y	.
4r	.	4r	.	8f	.	8a	.
.	.	.	.	8eJ	.	8g#J)	.
2r	.	8r	.	8fL	.	4a	.
.	.	(8eL	.	8g	.	.	.
.	.	8d	.	8f	.	4r	.
.	.	8c#J)	.	8eJ)	.	.	.
=5	=5	=5	=5	=5	=5	=5	=5
8r	.	8dL	.	8dL	.	(2ddd	.
(8d'L	.	(8f'	.	(8a'	.	.	.
8d'	.	8f'	.	8a'	.	.	.
8d'J)	.	8f'J)	.	8a'J)	.	.	.
8r	.	8r	.	8r	.	4.dd)	.
(8c'L	.	(8f#'L	.	(8a'L	.	.	.
8c'	.	8f#y'	.	8a'	.	.	.
8c'J)	.	8f#y'J)	.	8a'J)	.	8dd	.
!!LO:LB
=6	=6	=6	=6	=6	=6	=6	=6
8r	.	8r	.	8r	.	8.ddLT	.
(8Bn'L	.	(8g'L	.	(8d'L	.	.	.
.	.	.	.	.	.	16cc#J	.
8B'	.	8g'	.	8d'	.	8ddL	.
8B'J)	.	8g'J)	.	8d'J)	.	8ddJ	.
8r	.	8r	.	8r	.	(4.dd	.
(8B-'L	.	(8g#'L	.	8ffL	.	.	.
8B-y'	.	8g#y'	.	(8ff	.	.	.
8B-y'J)	.	8g#y'J)	.	8ddJ)	.	8fff)	.
=7	=7	=7	=7	=7	=7	=7	=7
2A	.	(4g#	.	[4dd	.	[4fff	.
.	.	4a)	.	(16ddL_	.	(16fffL_	.
.	.	.	.	16cc#	.	16eee)	.
.	.	.	.	16ff	.	(16ddd	.
.	.	.	.	16eeJ)	.	16ccc#J)	.
2r	.	8r	.	(4gg	.	(4bb-y	.
.	.	(8AL	.	.	.	.	.
.	.	8Bn	.	8ffL)	.	8aaL)	.
.	.	8c#J)	.	8eeJ	.	[8ggJ	.
=8	=8	=8	=8	=8	=8	=8	=8
2r	.	8dL	.	8aL	.	(16ggL_	.
.	.	.	.	.	.	16ff	.
.	.	8G	.	(16b-y	.	16ee	.
.	.	.	.	16gJ)	.	16bb-yJ)	.
.	.	8A	.	(16gL	.	(16bb-yL	.
.	.	.	.	16f)	.	16aa)	.
.	.	8AJ	.	(16e	.	(16cc#	.
.	.	.	.	16gJ)	.	16eeJ)	.
8r	.	4d	.	4f	.	4dd	.
8AL	.	.	.	.	.	.	.
8F	.	4r	.	4r	.	4r	.
8DJ	.	.	.	.	.	.	.
=9	=9	=9	=9	=9	=9	=9	=9
8AAL	.	4r	.	4.A	.	4.A	.
8A	.	.	.	.	.	.	.
8A	.	8r	.	.	.	.	.
8AJ	.	8f	.	8dd	.	8aa	.
8AL	.	8.eLT	.	(4dd	.	8.ggLT	.
8A	.	.	.	.	.	.	.
.	.	16fJ	.	.	.	16aaJ	.
8A	.	8gL	.	8cc#L)	.	8bb-yL	.
8AJ	.	8gJ	.	8b-yJ	.	8cc#J	.
=10	=10	=10	=10	=10	=10	=10	=10
(8AL	.	(8fL	.	8aL	.	8ddL	.
8c#	.	8eJ	.	(>8aJ	.	8eeJ	.
8d	.	8d)	.	8eeL	.	(8ggL	.
8G#J	.	8r	.	8ddJT)	.	8ffJT)	.
8A)	.	8r	.	4cc#	.	4ee	.
8r	.	(16aL	.	.	.	.	.
.	.	16g#J	.	.	.	.	.
4r	.	16aL	.	4r	.	4r	.
.	.	16g#y	.	.	.	.	.
.	.	16a	.	.	.	.	.
.	.	16g#yJ)	.	.	.	.	.
!!LO:LB
=11	=11	=11	=11	=11	=11	=11	=11
8AAL	.	4.a	.	4.A	.	4.A	.
8A	.	.	.	.	.	.	.
8A	.	.	.	.	.	.	.
8AJ	.	8f	.	8aa	.	8ddd	.
8AL	.	8.eLT	.	8.ggLT	.	(4ddd	.
8A	.	.	.	.	.	.	.
.	.	16fJ	.	16aaJ	.	.	.
8A	.	8gL	.	8bb-yL	.	8ccc#L)	.
8AJ	.	8gJ	.	8cc#J	.	8bb-yJ	.
=12	=12	=12	=12	=12	=12	=12	=12
(8AL	.	8f	.	8ddL	.	8aaL	.
8c#	.	(4a	.	8eeJ	.	8ggJ	.
8d	.	.	.	(8eeL	.	(8ggL	.
8G#J	.	8bn)	.	8ddJT)	.	8ffJT)	.
4A)	.	4e	.	4cc#	.	16eeL	.
.	.	.	.	.	.	(16gg#	.
.	.	.	.	.	.	16aa	.
.	.	.	.	.	.	16gg#yJ	.
4r	.	4r	.	8r	.	16aaL	.
.	.	.	.	.	.	16gg#y	.
.	.	.	.	(16ffL	.	16aa	.
.	.	.	.	16ddJ)	.	16ffJ)	.
=13	=13	=13	=13	=13	=13	=13	=13
2r	.	4r	.	16cc#L	.	8ee	.
.	.	.	.	(16g#	.	.	.
.	.	.	.	16a	.	8r	.
.	.	.	.	16g#yJ	.	.	.
.	.	8r	.	16aL	.	4r	.
.	.	.	.	16g#y	.	.	.
.	.	(16fL	.	16a	.	.	.
.	.	16dJ)	.	16fJ)	.	.	.
4r	.	16c#L	.	8e	.	2r	.
.	.	(16G#	.	.	.	.	.
.	.	16A	.	8r	.	.	.
.	.	16G#yJ	.	.	.	.	.
8r	.	16AL	.	4r	.	.	.
.	.	16G#y	.	.	.	.	.
(16FL	.	16A	.	.	.	.	.
16DJ)	.	16FJ)	.	.	.	.	.
=14	=14	=14	=14	=14	=14	=14	=14
16C#L	.	8E	.	2r	.	2r	.
(16GG#	.	.	.	.	.	.	.
16AA	.	8r	.	.	.	.	.
16GG#yJ	.	.	.	.	.	.	.
16AAL	.	4r	.	.	.	.	.
16GG#y	.	.	.	.	.	.	.
16AA	.	.	.	.	.	.	.
16FFJ)	.	.	.	.	.	.	.
4.EE	.	4.c 4.C	.	4.gg 4.ccn 4.e	.	4.bb-y 4.ccn 4.e	.
(8E	.	(8G	.	8B-y	.	8c	.
!!LO:LB
=15	=15	=15	=15	=15	=15	=15	=15
8E-L)	.	8FL)	.	(8B-yL	.	8cL	.
8E-yJ	.	8FJ	.	8AJ)	.	8cJ	.
8r	.	8r	.	8r	.	8r	.
8D	.	8F	.	8B-y	.	8d	.
4AA	.	4F	.	(8BnL	.	(8dL	.
.	.	.	.	8cJ)	.	8e-J)	.
8r	.	8r	.	8r	.	8r	.
8A	.	8c	.	8e-	.	[8f	.
=16	=16	=16	=16	=16	=16	=16	=16
(8B-yL	.	(8B-yL	.	(4d	.	8fL]	.
8A	.	8c	.	.	.	(8f#	.
8G	.	8B-y	.	8enL	.	8g	.
8FJ	.	8AJ	.	8fJ)	.	8aJ)	.
4En)	.	4G)	.	4c	.	(8ccL	.
.	.	.	.	.	.	8b-yJ)	.
8r	.	8r	.	8r	.	8r	.
8E	.	8c	.	8g	.	8b-y	.
=17	=17	=17	=17	=17	=17	=17	=17
(4F'	cresc.	[2f	cresc.	(8f	cresc.	(>8a	cresc.
.	.	.	.	4g	.	4b-y	.
4F'	.	.	.	.	.	.	.
.	.	.	.	4g#	.	4bn	.
4F'	.	8f]	.	.	.	.	.
.	.	(8fL	.	4a	.	4cc	.
4F')	.	8e	.	.	.	.	.
.	.	8e-J)	.	8a)	.	8cc#)	.
=18	=18	=18	=18	=18	=18	=18	=18
4BB-y	.	4d	.	4a]	.	(4cc#y_	.
8r	.	8r	.	(16ccL	.	16eeL	.
.	.	.	.	16b-y	.	16dd)	.
8BB-y	.	(16GL	.	16a	.	(16ccn	.
.	.	16dJ)	.	16gJ)	.	16bJ)	.
4C	.	4c	.	(4f	.	(4a	.
(8.cL	.	4r	.	8e)	.	8g)	.
.	.	.	.	8r	.	8r	.
16BnJ)	.	.	.	.	.	.	.
=19	=19	=19	=19	=19	=19	=19	=19
[4BnTT	.	2r	.	4r	.	4r	.
(8.BL_	.	.	.	4f	.	(8ddL	.
.	.	.	.	.	.	8gJ)	.
32A	.	.	.	.	.	.	.
32BJ	.	.	.	.	.	.	.
4c)	.	4r	.	(8.eL	.	(8.gL	.
.	.	.	.	16fJ	.	16aJ	.
4r	.	(8.CL	.	8e)	.	8g)	.
.	.	.	.	8r	.	8r	.
.	.	16D-J)	.	.	.	.	.
=20	=20	=20	=20	=20	=20	=20	=20
2r	.	[4D-TT	.	4r	.	4r	.
.	.	(8.D-yL_	.	(8a-L	.	(8ffL	.
.	.	.	.	8fJ)	.	8bnJ)	.
.	.	32C	.	.	.	.	.
.	.	32D-yJ	.	.	.	.	.
8r	.	4C)	.	(4f	.	(4b	.
(8CL	.	.	.	.	.	.	.
8c)	.	4r	.	8e)	.	8cc)	.
8B-J	.	.	.	8r	.	8r	.
=21	=21	=21	=21	=21	=21	=21	=21
(4B-y	.	2r	.	2.c	.	8r	.
.	.	.	.	.	.	(8fL	.
4A)	.	.	.	.	.	8ff)	.
.	.	.	.	.	.	8ee-J	.
8r	.	[2f	.	.	.	(4ee-y	.
(8BB-yL	.	.	.	.	.	.	.
8B-y)	.	.	.	(8B-yL	.	8dd-L)	.
8A-J	.	.	.	8cJ)	.	8ccJ	.
=22	=22	=22	=22	=22	=22	=22	=22
2G	.	8fL]	.	[2d	.	(4cc	.
.	.	(8G	.	.	.	.	.
.	.	8g)	.	.	.	4bn)	.
.	.	8fJ	.	.	.	.	.
[2C	.	(4f	.	8dL]	.	[2b-	.
.	.	.	.	(8g	.	.	.
.	.	8eL)	.	8gg)	.	.	.
.	.	[8dJ	.	8ffJ	.	.	.
=23	=23	=23	=23	=23	=23	=23	=23
4C_	.	8dL]	.	(4ff	.	8b-yL]	.
.	.	(8c	.	.	.	(8gg	.
(8.CL_	.	8a)	.	8eeL)	.	8ccc)	.
.	.	8gJ	.	8ccJ	.	8bb-yJ	.
32D	.	.	.	.	.	.	.
32EJ	.	.	.	.	.	.	.
8F)	.	8f	.	8cc	.	(32gg#L	.
.	.	.	.	.	.	32aaJ)	.
.	.	.	.	.	.	16r	.
8r	.	8r	.	8r	.	(32eeL	.
.	.	.	.	.	.	32ffJ)	.
.	.	.	.	.	.	16r	.
8BB-y	.	8f	.	8g	.	(32cc#L	.
.	.	.	.	.	.	32ddJ)	.
.	.	.	.	.	.	16r	.
8r	.	8r	.	8r	.	(32f#L	.
.	.	.	.	.	.	32gJ)	.
.	.	.	.	.	.	16r	.
!!LO:LB
=24	=24	=24	=24	=24	=24	=24	=24
(8AAL	.	(8cL	.	(8fL	.	8.ccL	.
8BB-y	.	8B-y	.	8d	.	.	.
.	.	.	.	.	.	16ddJ	.
8C)	.	8A	.	8c	.	(8fnL	.
8CJ	.	8GJ)	.	8B-yJ)	.	8eJ)	.
4FF	.	16r	.	16r	.	4f	.
.	.	(16FL	.	(16AL	.	.	.
.	.	16A)	.	16f)	.	.	.
.	.	16AJ	.	16fJ	.	.	.
4r	.	16AL	.	16fL	.	4r	.
.	.	16A	.	16f	.	.	.
.	.	16A	.	16f	.	.	.
.	.	16AJ	.	16fJ	.	.	.
=25	=25	=25	=25	=25	=25	=25	=25
4AA	.	16r	.	16r	.	(4f	.
.	.	(16AL	.	(16cL	.	.	.
.	.	16c)	.	16f)	.	.	.
.	.	16cJ	.	16fJ	.	.	.
4r	.	16cL	.	16fL	.	16eL	.
.	.	16c	.	16f	.	16f	.
.	.	16c	.	16f	.	16b-y	.
.	.	16cJ	.	16fJ	.	16aJ)	.
4BB-y	.	16r	.	16r	.	(8aL	.
.	.	(16GL	.	(16dL	.	.	.
.	.	16d)	.	16f)	.	8gJ)	.
.	.	16dJ	.	16fJ	.	.	.
4r	.	16dL	.	16fL	.	4r	.
.	.	16d	.	16f	.	.	.
.	.	16d	.	16f	.	.	.
.	.	16dJ	.	16fJ	.	.	.
=26	=26	=26	=26	=26	=26	=26	=26
4C	.	16r	.	16r	.	(>16f#L	.
.	.	(16GL	.	(16B-yL	.	16g	.
.	.	16B-y)	.	16e)	.	16a	.
.	.	16B-yJ	.	16eJ	.	16gJ	.
4r	.	16B-yL	.	16eL	.	16b-yL	.
.	.	16B-y	.	16e	.	16a	.
.	.	16B-y	.	16e	.	16dd	.
.	.	16B-yJ	.	16eJ	.	16ccJ)	.
4D	.	16r	.	16r	.	(8b-yL	.
.	.	(16FL	.	(16AL	.	.	.
.	.	16A)	.	16f)	.	8aJ)	.
.	.	16AJ	.	16fJ	.	.	.
4r	.	16AL	.	16fL	.	4r	.
.	.	16A	.	16f	.	.	.
.	.	16A	.	16f	.	.	.
.	.	16AJ	.	16fJ	.	.	.
!!LO:LB
=27	=27	=27	=27	=27	=27	=27	=27
4AA	.	16r	.	16r	.	(4ff	.
.	.	(16AL	.	(16cL	.	.	.
.	.	16c)	.	16f)	.	.	.
.	.	16cJ	.	16fJ	.	.	.
4r	.	16cL	.	16fL	.	16eeL	.
.	.	16c	.	16f	.	16ff	.
.	.	16c	.	16f	.	16bb-y	.
.	.	16cJ	.	16fJ	.	16aaJ)	.
4BB-y	.	16r	.	16r	.	(8aaL	.
.	.	(16GL	.	(16dL	.	.	.
.	.	16d)	.	16f)	.	8ggJ)	.
.	.	16dJ	.	16fJ	.	.	.
4r	.	16dL	.	16fL	.	(16ggL_	.
.	.	16d	.	16f	.	16ff	.
.	.	16d	.	16f	.	16ee	.
.	.	16dJ	.	16fJ	.	16ddJ)	.
=28	=28	=28	=28	=28	=28	=28	=28
4C	.	16r	cresc.	16r	cresc.	(8ddL	.
.	.	(16GL	.	(16B-yL	.	.	.
.	.	16B-y)	.	16e)	.	8ccJ)	.
.	.	16B-yJ	.	16eJ	.	.	.
4r	.	16B-yL	.	16eL	.	(16ccL_	.
.	.	16B-y	.	16e	.	16b-y	.
.	.	16B-y	.	16e	.	16a	.
.	.	16B-yJ	.	16eJ	.	16gJ)	.
4F	.	16AL	.	16fL	.	4f	.
.	.	(16f	.	(16a	.	.	.
.	.	16e	.	16g	.	.	.
.	.	16dJ	.	16fJ	.	.	.
4r	.	16c#L	.	16eL	.	4r	.
.	.	16d	.	16f	.	.	.
.	.	16cn	.	16e	.	.	.
.	.	16B-yJ)	.	16dJ)	.	.	.
=29	=29	=29	=29	=29	=29	=29	=29
4AA	.	16A'L	.	8cL	.	[8fL	.
.	.	16c'	.	.	.	.	.
.	.	16f'	.	8c	.	(<24f_	.
.	.	.	.	.	.	24e	.
.	.	16c'J	.	.	.	.	.
.	.	.	.	.	.	24fJ	.
4r	.	16AL	.	(8f	.	24aL	.
.	.	.	.	.	.	24g	.
.	.	16c	.	.	.	.	.
.	.	.	.	.	.	24fJ	.
.	.	16f	.	8cJ)	.	24ccL	.
.	.	.	.	.	.	24b-y	.
.	.	16cJ	.	.	.	.	.
.	.	.	.	.	.	24aJ)	.
4BB-y	.	16GL	.	8r	.	(8f#L	.
.	.	16d	.	.	.	.	.
.	.	16f	.	8dL	.	8gJ)	.
.	.	16dJ	.	.	.	.	.
4r	.	16GL	.	(8dd	.	4r	.
.	.	16d	.	.	.	.	.
.	.	16f	.	8gJ)	.	.	.
.	.	16dJ	.	.	.	.	.
!!LO:LB
=30	=30	=30	=30	=30	=30	=30	=30
4C	.	16GL	.	8r	.	(24bb-yL	.
.	.	.	.	.	.	24aa	.
.	.	16c	.	.	.	.	.
.	.	.	.	.	.	24ggJ	.
.	.	16e	.	8cL	.	24ffL	.
.	.	.	.	.	.	24ee	.
.	.	16cJ	.	.	.	.	.
.	.	.	.	.	.	24ddJ	.
4r	.	16GL	.	(8b-y	.	24ccL	.
.	.	.	.	.	.	24bn	.
.	.	16c	.	.	.	.	.
.	.	.	.	.	.	24ccJ	.
.	.	16e	.	8gJ)	.	24cc#L	.
.	.	.	.	.	.	24dd	.
.	.	16cJ	.	.	.	.	.
.	.	.	.	.	.	24b-J)	.
4D	.	16FL	.	8r	.	(8g#L	.
.	.	16A	.	.	.	.	.
.	.	16f	.	8dL	.	8aJ)	.
.	.	16AJ	.	.	.	.	.
4r	.	16FL	.	(8dd	.	4r	.
.	.	16A	.	.	.	.	.
.	.	16f	.	8aJ)	.	.	.
.	.	16AJ	.	.	.	.	.
=31	=31	=31	=31	=31	=31	=31	=31
4AA	.	16AL	.	8r	.	24fL	.
.	.	.	.	.	.	24a	.
.	.	16c	.	.	.	.	.
.	.	.	.	.	.	24ccJ	.
.	.	16f	.	8cL	.	24ffL	.
.	.	.	.	.	.	24aa	.
.	.	16cJ	.	.	.	.	.
.	.	.	.	.	.	24cccJ	.
4r	.	16AL	.	(8cc	.	24fffL	.
.	.	.	.	.	.	24eee	.
.	.	16c	.	.	.	.	.
.	.	.	.	.	.	24dddJ	.
.	.	16f	.	8aJ)	.	24cccL	.
.	.	.	.	.	.	24bb-y	.
.	.	16cJ	.	.	.	.	.
.	.	.	.	.	.	24aaJ	.
4BB-y	.	16GL	.	8r	.	(24ggL	.
.	.	.	.	.	.	24aa	.
.	.	16d	.	.	.	.	.
.	.	.	.	.	.	24ff#J	.
.	.	16f	.	8dL	.	24ggL)	.
.	.	.	.	.	.	24bb-y	.
.	.	16dJ	.	.	.	.	.
.	.	.	.	.	.	24aaJ	.
4r	.	16GL	.	(8dd	.	24bb-yL	.
.	.	.	.	.	.	24aa	.
.	.	16d	.	.	.	.	.
.	.	.	.	.	.	24ggJ	.
.	.	16f	.	8b-yJ)	.	24ffnL	.
.	.	.	.	.	.	24ee	.
.	.	16dJ	.	.	.	.	.
.	.	.	.	.	.	24ddJ	.
=32	=32	=32	=32	=32	=32	=32	=32
8r	.	8fL	cresc.	8a	.	24ccL	.
.	.	.	.	.	.	24dd	.
.	.	.	.	.	.	24bnJ	.
8AAL	.	8cJ	.	(4f	.	(24ccL	.
.	.	.	.	.	.	24ff)	.
.	.	.	.	.	.	24fJ	.
8BB-y	.	(8dL	.	.	.	(8.gLT	.
8CJ	.	16c	.	8e)	.	.	.
.	.	16B-yJ)	.	.	.	32f	.
.	.	.	.	.	.	32gJ)	.
(8F	.	(2A	.	(4f	.	4f	.
4E-)	.	.	.	.	.	.	.
.	.	.	.	4f#)	.	4r	.
(16.DL	.	.	.	.	.	.	.
32CJ)	.	.	.	.	.	.	.
=33	=33	=33	=33	=33	=33	=33	=33
8BB-y'L	.	8dL)	.	8g'L	.	1r	.
8AA'	.	8f#'	.	8a'	.	.	.
8GG'	.	8g'	.	8b-y'	.	.	.
8FF'J	.	8a'J	.	8cc'J	.	.	.
8r	.	(16aL	.	(16cc#L	.	.	.
.	.	16b-y)	.	16dd)	.	.	.
8BB-y	.	16d'	.	16b-y'	.	.	.
.	.	16B-y'J	.	16g'J	.	.	.
4C	.	(8AL	.	(8fnL	.	.	.
.	.	8GJ)	.	8eJ)	.	.	.
=34	=34	=34	=34	=34	=34	=34	=34
(8F	.	(8A	.	(4f	.	(4ff	.
4e-)	.	4cc)	.	.	.	.	.
.	.	.	.	4f#)	.	4ff#)	.
(16.dL	.	(16.b-yL	.	.	.	.	.
32cJ)	.	32aJ)	.	.	.	.	.
8B-y'L	.	8dd'L	.	8g'L	.	8gg'L	.
8A'	.	8f#'	.	8a'	.	8aa'	.
8G'	.	8g'	.	8b-y'	.	8bb-y'	.
8F'J	.	8a'J	.	8cc'J	.	8ccc'J	.
=35	=35	=35	=35	=35	=35	=35	=35
8r	.	(16aL	.	(16cc#L	.	(16ccc#L	.
.	.	16b-y)	.	16dd)	.	16ddd)	.
8BB-y	.	16d'	.	16b-y'	.	16bb-y'	.
.	.	16B-y'J	.	16g'J	.	16gg'J	.
4C	.	(8AL	.	(8fnL	.	(8ffnL	.
.	.	8GJ)	.	8eJ)	.	8eeJ)	.
8FF	.	8A	.	(24fL	.	8ff	.
.	.	.	.	24a	.	.	.
.	.	.	.	24cc)	.	.	.
8r	.	8r	.	24cc'	.	8r	.
.	.	.	.	24cc'	.	.	.
.	.	.	.	24cc'J	.	.	.
4r	.	8b-y'L	.	24ccL	.	8ee'L	.
.	.	.	.	24cc	.	.	.
.	.	.	.	24cc	.	.	.
.	.	8b-y'J	.	24cc	.	8ee'J	.
.	.	.	.	24cc	.	.	.
.	.	.	.	24ccJ	.	.	.
!!LO:LB
=36	=36	=36	=36	=36	=36	=36	=36
1r	.	8a'L	.	24ccL	.	8ff'L	.
.	.	.	.	24cc	.	.	.
.	.	.	.	24cc	.	.	.
.	.	8a'	.	24cc	.	8ff'	.
.	.	.	.	24cc	.	.	.
.	.	.	.	24ccJ	.	.	.
.	.	8e'	.	24ccL	.	8gg'	.
.	.	.	.	24cc	.	.	.
.	.	.	.	24cc	.	.	.
.	.	8e'J	.	24cc	.	(8ggJT	.
.	.	.	.	24cc	.	.	.
.	.	.	.	24ccJ	.	.	.
.	.	8f'L	.	24ccL	.	8aaL)	.
.	.	.	.	24ff	.	.	.
.	.	.	.	24ff	.	.	.
.	.	8d'	.	24ff	.	8bb-y'	.
.	.	.	.	24ff	.	.	.
.	.	.	.	24ffJ	.	.	.
.	.	8A'	.	24ffL	.	8ccc'	.
.	.	.	.	24ff	.	.	.
.	.	.	.	24ff	.	.	.
.	.	8B-y'J	.	24ff	.	8ddd'J	.
.	.	.	.	24ff	.	.	.
.	.	.	.	24ffJ	.	.	.
=37	=37	=37	=37	=37	=37	=37	=37
2r	.	8AL	.	24ffL	.	(16dddL	.
.	.	.	.	24ff	.	.	.
.	.	.	.	.	.	16ccc)	.
.	.	.	.	24ff	.	.	.
.	.	8d	.	24ff	.	16bb-y'	.
.	.	.	.	24ff	.	.	.
.	.	.	.	.	.	16aa'J	.
.	.	.	.	24ffJ	.	.	.
.	.	8c	.	(24ffL	.	(8aaL	.
.	.	.	.	24gg	.	.	.
.	.	.	.	24ff	.	.	.
.	.	8CJ	.	24ee	.	8ggJT)	.
.	.	.	.	24dd	.	.	.
.	.	.	.	24eeJ)	.	.	.
4r	.	(24FL	.	8ff	.	4ff	.
.	.	24A	.	.	.	.	.
.	.	24c)	.	.	.	.	.
.	.	24c'	.	8r	.	.	.
.	.	24c'	.	.	.	.	.
.	.	24c'J	.	.	.	.	.
8B-y'L	.	24cL	.	8e'L	.	4r	.
.	.	24c	.	.	.	.	.
.	.	24c	.	.	.	.	.
8B-y'J	.	24c	.	8e'J	.	.	.
.	.	24c	.	.	.	.	.
.	.	24cJ	.	.	.	.	.
!!LO:LB
=38	=38	=38	=38	=38	=38	=38	=38
8A'L	.	24cL	.	8f'L	.	1r	.
.	.	24c	.	.	.	.	.
.	.	24c	.	.	.	.	.
8A'	.	24c	.	8f'	.	.	.
.	.	24c	.	.	.	.	.
.	.	24cJ	.	.	.	.	.
8E'	.	24cL	.	8g'	.	.	.
.	.	24c	.	.	.	.	.
.	.	24c	.	.	.	.	.
8E'J	.	24c	.	(8gJT	.	.	.
.	.	24c	.	.	.	.	.
.	.	24cJ	.	.	.	.	.
8F'L	.	24cL	.	8aL)	.	.	.
.	.	24f	.	.	.	.	.
.	.	24f	.	.	.	.	.
8D'	.	24f	.	8b-y'	.	.	.
.	.	24f	.	.	.	.	.
.	.	24fJ	.	.	.	.	.
8AA'	.	24fL	.	8cc'	.	.	.
.	.	24f	.	.	.	.	.
.	.	24f	.	.	.	.	.
8BB-y'J	.	24f	.	8dd'J	.	.	.
.	.	24f	.	.	.	.	.
.	.	24fJ	.	.	.	.	.
=39	=39	=39	=39	=39	=39	=39	=39
8AAL	.	24fL	.	(16ddL	.	2r	.
.	.	24f	.	.	.	.	.
.	.	.	.	16cc)	.	.	.
.	.	24f	.	.	.	.	.
8D	.	24f	.	16b-y'	.	.	.
.	.	24f	.	.	.	.	.
.	.	.	.	16a'J	.	.	.
.	.	24fJ	.	.	.	.	.
8C	.	(24fL	.	(8aL	.	.	.
.	.	24g	.	.	.	.	.
.	.	24f	.	.	.	.	.
8CCJ	.	24e	.	8gJT)	.	.	.
.	.	24d	.	.	.	.	.
.	.	24eJ)	.	.	.	.	.
4FF	.	4f	.	4f	.	24r	.
.	.	.	.	.	.	(24ffL	.
.	.	.	.	.	.	24aa	.
.	.	.	.	.	.	24ccc)	.
.	.	.	.	.	.	24ccc'	.
.	.	.	.	.	.	24ccc'J	.
8r	.	8r	.	8r	.	8ccc	.
8c	.	(16.gL	.	(16.bb-yL	.	8r	.
.	.	32eJ)	.	32ggJ)	.	.	.
!!LO:LB
=40	=40	=40	=40	=40	=40	=40	=40
4F	.	4f	.	4ff	.	24r	.
.	.	.	.	.	.	(24fL	.
.	.	.	.	.	.	24a	.
.	.	.	.	.	.	24cc)	.
.	.	.	.	.	.	24cc'	.
.	.	.	.	.	.	24cc'J	.
8r	.	8r	.	8r	.	8cc'	.
8C	.	(16.GL	.	(16.b-yL	.	8r	.
.	.	32EJ)	.	32gJ)	.	.	.
(4.FF	.	8FL	.	8fL	.	24r	.
.	.	.	.	.	.	(24cL	.
.	.	.	.	.	.	24f	.
.	.	(8F'J	.	(8c'J	.	24a)	.
.	.	.	.	.	.	24a'	.
.	.	.	.	.	.	24a'J	.
.	.	8F')	.	8c')	.	8a	.
8F)	.	8r	.	8r	.	8r	.
=41	=41	=41	=41	=41	=41	=41	=41
(2E-	.	8GL	.	8e-L	.	2ee- 2e- 2G	.
.	.	(8G'	.	(8B-y'	.	.	.
.	.	8G'	.	8B-y'	.	.	.
.	.	8G'J)	.	8B-y'J)	.	.	.
2D-	.	8r	.	8r	.	4.e-y	.
.	.	(8G'L	.	(8B-y'L	.	.	.
.	.	8G'	.	8B-y'	.	.	.
.	.	8G'J)	.	8B-y'J)	.	8e-y	.
=42	=42	=42	=42	=42	=42	=42	=42
2C-	.	8r	.	8r	.	8.e-LT	.
.	.	(8A-'L	.	(8c-'L	.	.	.
.	.	.	.	.	.	16dJ	.
.	.	8A-y'	.	8c-y'	.	8e-yL	.
.	.	8A-y'J)	.	8c-y'J)	.	8e-yJ	.
2BB-y	.	8r	.	8r	.	2e-y	.
.	.	(8G'L	.	(8d-'L	.	.	.
.	.	8G'	.	8d-y'	.	.	.
.	.	8G'J)	.	8d-y'J)	.	.	.
=43	=43	=43	=43	=43	=43	=43	=43
2AA-	.	8r	.	8r	.	8.e-LT	.
.	.	(8A-'L	.	(8c-'L	.	.	.
.	.	.	.	.	.	16dJ	.
.	.	8A-y'	.	8c-y'	.	8e-yL	.
.	.	8A-y'J)	.	8c-y'J)	.	8e-yJ	.
2GG-)	.	8r	.	8r	.	2e-y	.
.	.	(8E-'L	.	(8B-y'L	.	.	.
.	.	8E-y'	.	8B-y'	.	.	.
.	.	8E-y'J)	.	8B-y'J)	.	.	.
=44	=44	=44	=44	=44	=44	=44	=44
1FF	.	1C	.	[1An	.	8.e-LT	.
.	.	.	.	.	.	16dJ	.
.	.	.	.	.	.	8e-yL	.
.	.	.	.	.	.	8e-yJ	.
.	.	.	.	.	.	(4.e-y	.
.	.	.	.	.	.	8en)	.
=45	=45	=45	=45	=45	=45	=45	=45
(8.EEnLT	.	2En	.	(2.A_	.	(2c	.
16DD#J)	.	.	.	.	.	.	.
8EE'L	.	.	.	.	.	.	.
8EE'J	.	.	.	.	.	.	.
2EE	.	(8.ELT	.	.	.	2Bn)	.
.	.	16D#J)	.	.	.	.	.
.	.	8EL	.	4G#)	.	.	.
.	.	8E'J	.	.	.	.	.
!!LO:LB
=46	=46	=46	=46	=46	=46	=46	=46
(8.EELT	.	2E	.	(2.c	.	(4B_	.
16DD#J)	.	.	.	.	.	.	.
8EEL	.	.	.	.	.	4A)	.
8EE'J	.	.	.	.	.	.	.
2EE	.	(8.ELT	.	.	.	[2d	.
.	.	16D#J)	.	.	.	.	.
.	.	8EL	.	4Bn)	.	.	.
.	.	8E'J	.	.	.	.	.
=47	=47	=47	=47	=47	=47	=47	=47
(8.EELT	.	2E	.	[2en	.	(4d_	.
16DD#J)	.	.	.	.	.	.	.
8EE'L	.	.	.	.	.	4c	.
8EE'J	.	.	.	.	.	.	.
[2EE	.	(8.ELT	.	(8e_	.	4f	.
.	.	.	.	4d	.	.	.
.	.	16D#J)	.	.	.	.	.
.	.	8EL	.	.	.	4e)	.
.	.	8EJ	.	8c)	.	.	.
=48	=48	=48	=48	=48	=48	=48	=48
1EE]	.	(8.F#LT	.	(2c	.	(2d#	.
.	.	16EJ)	.	.	.	.	.
.	.	8F#yL	.	.	.	.	.
.	.	8F#y'J	.	.	.	.	.
.	.	(8.G#LT	.	2Bn)	.	2dn)	.
.	.	16F#yJ)	.	.	.	.	.
.	.	8G#yL	.	.	.	.	.
.	.	8G#y'J	.	.	.	.	.
=49	=49	=49	=49	=49	=49	=49	=49
8AAL	.	8AL	.	8AL	.	8cL	.
(8Bn	.	(8dd	.	(8ff	.	(8gg#	.
8c)	.	8cc)	.	8ee)	.	8aa)	.
8G#J	.	8bnJ	.	8ddJ	.	8ffJ	.
8AL	.	8eL	.	8ccL	.	8eeL	.
8D	.	8f	.	8bn	.	8dd	.
8E	.	8e	.	8a	.	8cc	.
8EJ	.	8eJ	.	8g#J	.	8bnJ	.
=50	=50	=50	=50	=50	=50	=50	=50
2r	.	2r	.	2r	.	(>1b-	<
(2E	.	(2Gn	.	(2c#	.	.	[
!!LO:LB
=51	=51	=51	=51	=51	=51	=51	=51
8FL)	.	8AL)	.	8dL)	.	8aL)	.
(>8D	.	(8Bn	.	(8f	.	(8g#	.
8C)	.	8c)	.	8e)	.	8a)	.
8BBnJ	.	8G#J	.	8dJ	.	8fJ	.
8CL	.	8A	.	8cnL	.	8eL	.
8D	.	8r	.	8Bn	.	8d	.
8E	.	4r	.	8A	.	8c	.
8EEJ	.	.	.	8G#J	.	8BnJ	.
=52	=52	=52	=52	=52	=52	=52	=52
1r	.	2a	.	1r	.	1r	.
.	.	4.A	.	.	.	.	.
.	.	8A	.	.	.	.	.
=53	=53	=53	=53	=53	=53	=53	=53
8r	.	8.ALTT	.	2b-	.	1r	.
(8DL	.	.	.	.	.	.	.
.	.	16G#J	.	.	.	.	.
8C#	.	8AL	.	.	.	.	.
8DJ)	.	8AJ	.	.	.	.	.
8r	.	2A	.	4.B-y	.	.	.
(8FL	.	.	.	.	.	.	.
8E	.	.	.	.	.	.	.
8DJ)	.	.	.	8B-y	.	.	.
=54	=54	=54	=54	=54	=54	=54	=54
8r	.	1Gn	.	8.B-yLT	.	2cc#	.
(8EL	.	.	.	.	.	.	.
.	.	.	.	16AJ	.	.	.
8D#	.	.	.	8B-yL	.	.	.
8EJ)	.	.	.	8B-yJ	.	.	.
8r	.	.	.	2B-y	.	4.c#	.
(8GL	.	.	.	.	.	.	.
8F	.	.	.	.	.	.	.
8EJ)	.	.	.	.	.	8c#y	.
=55	=55	=55	=55	=55	=55	=55	=55
2d	.	8FL	.	4A	.	4d	.
.	.	(<8d	.	.	.	.	.
.	.	8e	.	4r	.	4r	.
.	.	8fJ)	.	.	.	.	.
4.D	.	8r	.	2r	.	2r	.
.	.	(8fL	.	.	.	.	.
.	.	8e	.	.	.	.	.
8D	.	8dJ)	.	.	.	.	.
=56	=56	=56	=56	=56	=56	=56	=56
8.DLTT	.	8r	.	2ee-	.	1r	.
.	.	(8gL	.	.	.	.	.
16C#J	.	.	.	.	.	.	.
8DL	.	8f#	.	.	.	.	.
8DJ	.	8gJ)	.	.	.	.	.
2D	.	8r	.	4.e-	.	.	.
.	.	(8b-yL	.	.	.	.	.
.	.	8a	.	.	.	.	.
.	.	8gJ)	.	8e-y	.	.	.
!!LO:LB
=57	=57	=57	=57	=57	=57	=57	=57
1Cn	.	8r	.	8.e-LT	.	2ff#	.
.	.	(8aL	.	.	.	.	.
.	.	.	.	16dJ	.	.	.
.	.	8g#	.	8e-yL	.	.	.
.	.	8aJ)	.	8e-yJ	.	.	.
.	.	8r	.	2e-y	.	4.f#	.
.	.	(8ccL	.	.	.	.	.
.	.	8b-y	.	.	.	.	.
.	.	8aJ)	.	.	.	8f#y	.
=58	=58	=58	=58	=58	=58	=58	=58
4BB-y	.	24r	.	4d	.	4g	.
.	.	(24dL	.	.	.	.	.
.	.	24g	.	.	.	.	.
.	.	24b-y)	.	.	.	.	.
.	.	24b-y	.	.	.	.	.
.	.	24b-y'J	.	.	.	.	.
8r	.	8b-y'	.	4r	.	2ddd	.
(8B-y	.	8r	.	.	.	.	.
4.G)	.	2r	.	24r	.	.	.
.	.	.	.	(24gL	.	.	.
.	.	.	.	24b-y	.	.	.
.	.	.	.	24dd)	.	.	.
.	.	.	.	24dd'	.	.	.
.	.	.	.	24dd'J	.	.	.
.	.	.	.	8dd	.	(16cccL	.
.	.	.	.	.	.	16bb-y)	.
(8B-y	.	.	.	8r	.	(16aa	.
.	.	.	.	.	.	16ggJ)	.
=59	=59	=59	=59	=59	=59	=59	=59
4.c)	.	24r	.	4r	.	(8ffL	.
.	.	(<24GL	.	.	.	.	.
.	.	24B-y	.	.	.	.	.
.	.	24e)	.	.	.	8eeJ)	.
.	.	24e	.	.	.	.	.
.	.	24e'J	.	.	.	.	.
.	.	8e	.	2gg	.	4r	.
(8E	.	8r	.	.	.	.	.
4.C)	.	2r	.	.	.	24r	.
.	.	.	.	.	.	(24cL	.
.	.	.	.	.	.	24g	.
.	.	.	.	.	.	24b-y)	.
.	.	.	.	.	.	24b-y'	.
.	.	.	.	.	.	24b-y'J	.
.	.	.	.	(16ffL	.	8b-y	.
.	.	.	.	16ee)	.	.	.
(8E	.	.	.	(16dd	.	8r	.
.	.	.	.	16ccJ)	.	.	.
=60	=60	=60	=60	=60	=60	=60	=60
4.F)	.	24r	.	(8b-yL	.	4r	.
.	.	(24FL	.	.	.	.	.
.	.	24c	.	.	.	.	.
.	.	24f)	.	8aJ)	.	.	.
.	.	24f'	.	.	.	.	.
.	.	24f'J	.	.	.	.	.
.	.	8f	.	4r	.	2ccc	.
(8A	.	8r	.	.	.	.	.
4.F)	.	2r	.	24r	.	.	.
.	.	.	.	(24fL	.	.	.
.	.	.	.	24a	.	.	.
.	.	.	.	24cc)	.	.	.
.	.	.	.	24cc'	.	.	.
.	.	.	.	24cc'J	.	.	.
.	.	.	.	8cc'	.	(16bb-yL	.
.	.	.	.	.	.	16aa)	.
(8A	.	.	.	8r	.	(16gg	.
.	.	.	.	.	.	16ffJ)	.
=61	=61	=61	=61	=61	=61	=61	=61
4.B-y)	.	24r	.	4r	.	(8eeL	.
.	.	(24FL	.	.	.	.	.
.	.	24B-y	.	.	.	.	.
.	.	24d)	.	.	.	8ddJ)	.
.	.	24d'	.	.	.	.	.
.	.	24d'J	.	.	.	.	.
.	.	8d'	.	2ff	.	4r	.
(8d	.	8r	.	.	.	.	.
4.B-y)	.	2r	.	.	.	24r	.
.	.	.	.	.	.	(24B-yL	.
.	.	.	.	.	.	24d	.
.	.	.	.	.	.	24f)	.
.	.	.	.	.	.	24f'	.
.	.	.	.	.	.	24f'J	.
.	.	.	.	(16eeL	.	8f'	.
.	.	.	.	16dd)	.	.	.
(8D	.	.	.	(16cc	.	8r	.
.	.	.	.	16b-yJ)	.	.	.
!!LO:LB
=62	=62	=62	=62	=62	=62	=62	=62
4.E)	cre	24r	cre	(8aL	.	4r	cre
.	.	(24GL	.	.	.	.	.
.	.	24B-y	.	.	.	.	.
.	.	24c#)	.	8gJ)	.	.	.
.	.	24c#y'	.	.	.	.	.
.	.	24c#y'J	.	.	.	.	.
.	.	8c#y	.	4r	.	(2bb-y	.
(8G	.	8r	.	.	.	.	.
4.D)	.	24r	.	2r	.	.	.
.	.	(24GL	.	.	.	.	.
.	.	24B-y	.	.	.	.	.
.	.	24d)	.	.	.	.	.
.	.	24d'	.	.	.	.	.
.	.	24d'J	.	.	.	.	.
.	.	8d'	.	.	.	4b-y)	.
(8G	.	8r	.	.	.	.	.
=63	=63	=63	=63	=63	=63	=63	=63
4.C#)	scen	24r	scen	4r	crescen	4a	scen
.	.	(24GL	.	.	.	.	.
.	.	24e	.	.	.	.	.
.	.	24a)	.	.	.	.	.
.	.	24a'	.	.	.	.	.
.	.	24a'J	.	.	.	.	.
.	.	8a	.	(2gg	.	(2eee	.
(8E	.	8r	.	.	.	.	.
4.AA)	.	24r	.	.	.	.	.
.	.	(24AL	.	.	.	.	.
.	.	24c#	.	.	.	.	.
.	.	24e)	.	.	.	.	.
.	.	24e'	.	.	.	.	.
.	.	24e'J	.	.	.	.	.
.	.	8e'	.	4cc#)	.	4gg)	.
(8A	.	8r	.	.	.	.	.
=64	=64	=64	=64	=64	=64	=64	=64
4d)	.	8r	.	8ddL	.	(8ff#L	.
.	.	(8dL	.	8a	.	8ffn	.
(8c#L	.	8g	.	8b-y	.	8ee	.
8cnJ	.	8aJ)	.	[8f#J	.	8ee-J	.
4Bn	.	8a_	.	(8f#y_	.	16ddL	.
.	.	.	.	.	.	16cc#	.
.	.	(4d	.	4g	.	16dd	.
.	.	.	.	.	.	16cc#yJ	.
4B-)	.	.	.	.	.	16ddL	.
.	.	.	.	.	.	16ff	.
.	.	16c#L	.	8g#)	.	16een	.
.	.	16dJ)	.	.	.	16ddJ)	.
!!LO:LB
=65	=65	=65	=65	=65	=65	=65	=65
4A	.	4e	.	4a	.	24r	.
.	.	.	.	.	.	(24cc#L	.
.	.	.	.	.	.	24ee	.
.	.	.	.	.	.	24aa)	.
.	.	.	.	.	.	24aa'	.
.	.	.	.	.	.	24aa'J	.
8r	.	4r	.	8r	.	8aa	.
(16.fL	.	.	.	(16.aaL	.	8r	.
32dJ)	.	.	.	32ffJ)	.	.	.
4c#	.	24r	.	4ee	.	4r	.
.	.	(24c#L	.	.	.	.	.
.	.	24e	.	.	.	.	.
.	.	24a)	.	.	.	.	.
.	.	24a'	.	.	.	.	.
.	.	24a'J	.	.	.	.	.
4r	.	8a	.	8r	.	8r	.
.	.	8r	.	(16.aL	.	(16.ffL	.
.	.	.	.	32fJ)	.	32ddJ)	.
=66	=66	=66	=66	=66	=66	=66	=66
1AA	.	24r	.	[4e	.	4cc#	.
.	.	(24C#L	.	.	.	.	.
.	.	24E	.	.	.	.	.
.	.	24A)	.	.	.	.	.
.	.	24A'	.	.	.	.	.
.	.	24A'J	.	.	.	.	.
.	.	[2.A	.	24eL]	.	4r	.
.	.	.	.	(24A	.	.	.
.	.	.	.	24c#	.	.	.
.	.	.	.	24e)	.	.	.
.	.	.	.	24e'	.	.	.
.	.	.	.	24e'J	.	.	.
.	.	.	.	2e 2c#y	.	24r	.
.	.	.	.	.	.	(24c#L	.
.	.	.	.	.	.	24e	.
.	.	.	.	.	.	24a)	.
.	.	.	.	.	.	24a'	.
.	.	.	.	.	.	24a'J	.
.	.	.	.	.	.	8aL	.
.	.	.	.	.	.	(8aJ	.
!!LO:LB
=67	=67	=67	=67	=67	=67	=67	=67
1AA	.	24AL_	.	[4f [4d	.	2b-y)	.
.	.	(24D	.	.	.	.	.
.	.	24F	.	.	.	.	.
.	.	24B-y)	.	.	.	.	.
.	.	24B-y'	.	.	.	.	.
.	.	24B-y'J	.	.	.	.	.
.	.	[2.B-y	.	24fL] 24d]	.	.	.
.	.	.	.	(24B-y	.	.	.
.	.	.	.	24d	.	.	.
.	.	.	.	24f)	.	.	.
.	.	.	.	24f'	.	.	.
.	.	.	.	24f'J	.	.	.
.	.	.	.	2f 2d	.	24b-yL]	.
.	.	.	.	.	.	(24d	.
.	.	.	.	.	.	24f	.
.	.	.	.	.	.	24b-y)	.
.	.	.	.	.	.	24b-y	.
.	.	.	.	.	.	24b-yJ	.
.	.	.	.	.	.	8b-yL	.
.	.	.	.	.	.	(8b-yJ	.
=68	=68	=68	=68	=68	=68	=68	=68
[2AA	.	24B-yL_	.	[4e [4G	.	2cc#)	.
.	.	(<24G	.	.	.	.	.
.	.	24c#	.	.	.	.	.
.	.	24e)	.	.	.	.	.
.	.	24e'	.	.	.	.	.
.	.	24e'J	.	.	.	.	.
.	.	[2e	.	24eL] 24G]	.	.	.
.	.	.	.	(24c#	.	.	.
.	.	.	.	24e	.	.	.
.	.	.	.	24g)	.	.	.
.	.	.	.	24g'	.	.	.
.	.	.	.	24g'J	.	.	.
4AA_	.	.	.	[4g [4A	.	24cc#yL]	.
.	.	.	.	.	.	(24e	.
.	.	.	.	.	.	24g	.
.	.	.	.	.	.	24cc#y)	.
.	.	.	.	.	.	24cc#y'	.
.	.	.	.	.	.	24cc#y'J	.
24AAL]	.	8e]	.	8g] 8A]	.	8cc#yL	.
(24C#	.	.	.	.	.	.	.
24E	.	.	.	.	.	.	.
24A)	.	8r	.	8r	.	(8cc#yJ	.
24A'	.	.	.	.	.	.	.
24A'J	.	.	.	.	.	.	.
=69	=69	=69	=69	=69	=69	=69	=69
(2D	sotto voce	8r	sotto voce	8r	sotto voce	2dd)	sotto voce
.	.	(8F'L	.	(8A'L	.	.	.
.	.	8F'	.	8A'	.	.	.
.	.	8F'J)	.	8A'J)	.	.	.
2Cn	.	8r	.	8r	.	4.d	.
.	.	(8F'L	.	(8A'L	.	.	.
.	.	8F'	.	8A'	.	.	.
.	.	8F'J)	.	8A'J)	.	8d	.
=70	=70	=70	=70	=70	=70	=70	=70
2BB-y	.	8r	.	8r	.	8.dLT	.
.	.	(8F'L	.	(8B-y'L	.	.	.
.	.	.	.	.	.	16c#J	.
.	.	8F'	.	8B-y'	.	8dL	.
.	.	8F'J)	.	8B-y'J)	.	8dJ	.
2AA	.	8r	.	8r	.	(4.d	.
.	.	(8A'L	.	8fL	.	.	.
.	.	8A'	.	(8f	.	.	.
.	.	8A'J)	.	8dJ)	.	8ff)	.
=71	=71	=71	=71	=71	=71	=71	=71
2GG	.	8r	.	8r	.	[4ff	.
.	.	(8B-y'L	.	(8dL	.	.	.
.	.	8B-y'	.	8c#	.	(16ffL_	.
.	.	.	.	.	.	16ee)	.
.	.	8B-y'J)	.	8eJ)	.	(16dd	.
.	.	.	.	.	.	16cc#J)	.
2AA)	.	8r	.	8r	.	(4b-y	.
.	.	(8E'L	.	(8c#y'L	.	.	.
.	.	8E'	.	8c#y'	.	8aL)	.
.	.	8E'J)	.	8c#y'J)	.	8gJ	.
=72	=72	=72	=72	=72	=72	=72	=72
4DD	.	4D	.	8dL	.	8fL	.
.	.	.	.	(8g	.	(8b-y	.
4r	.	4r	.	8f	.	8a	.
.	.	.	.	8eJ	.	8g#J)	.
2r	.	8r	.	8fL	.	4a	.
.	.	(8eL	.	8g	.	.	.
.	.	8d	.	8f	.	4r	.
.	.	8c#J)	.	8eJ)	.	.	.
=73	=73	=73	=73	=73	=73	=73	=73
.	.	.	.	.	.	(<32qdL	.
.	.	.	.	.	.	32qddJ	.
8r	.	8dL	.	8dL	.	2ddd)	.
(8dL	.	(8f'	.	(8a'	.	.	.
8d'	.	8f'	.	8a'	.	.	.
8dJ)	.	8f'J)	.	8a'J)	.	.	.
8r	.	8r	.	8r	.	4.dd	.
(8c'L	.	(8f#'L	.	(8a'L	.	.	.
8c'	.	8f#y'	.	8a'	.	.	.
8c'J)	.	8f#y'J)	.	8a'J)	.	8dd	.
=74	=74	=74	=74	=74	=74	=74	=74
8r	.	8r	.	8r	.	8.ddLT	.
(8Bn'L	.	(8g'L	.	(8d'L	.	.	.
.	.	.	.	.	.	16cc#J	.
8B'	.	8g'	.	8d'	.	8ddL	.
8B'J)	.	8g'J)	.	8d'J)	.	8ddJ	.
8r	.	8r	.	8r	.	(4.dd	.
(8B-'L	.	(8g#'L	.	8ffL	.	.	.
8B-y'	.	8g#y'	.	(8ff	.	.	.
8B-y'J)	.	8g#y'J)	.	8ddJ)	.	8fff)	.
!!LO:LB
=75	=75	=75	=75	=75	=75	=75	=75
2A	.	(4g#	.	[4dd	.	[4fff	.
.	.	4a)	.	(16ddL_	.	(16fffL_	.
.	.	.	.	16cc#	.	16eee)	.
.	.	.	.	16ff	.	(16ddd	.
.	.	.	.	16eeJ)	.	16ccc#J)	.
2r	.	8r	.	(4gg	.	(4bb-y	.
.	.	(8AL	.	.	.	.	.
.	.	8Bn	.	8ffL)	.	8aaL)	.
.	.	8c#J)	.	8eeJ	.	[8ggJ	.
=76	=76	=76	=76	=76	=76	=76	=76
2r	.	8dL	.	8aL	.	(16ggL_	.
.	.	.	.	.	.	16ff	.
.	.	8G	.	(16b-y	.	16ee	.
.	.	.	.	16gJ)	.	16bb-yJ)	.
.	.	8A	.	(16gL	.	(16bb-yL	.
.	.	.	.	16f)	.	16aa)	.
.	.	8AJ	.	(16e	.	(16cc#	.
.	.	.	.	16gJ)	.	16eeJ)	.
8r	.	4d	.	4f	.	4dd	.
8AL	.	.	.	.	.	.	.
8F	.	4r	.	4r	.	4r	.
8DJ	.	.	.	.	.	.	.
=77	=77	=77	=77	=77	=77	=77	=77
8AAL	.	4r	.	4.A	.	4.A	.
8A	.	.	.	.	.	.	.
8A	.	8r	.	.	.	.	.
8AJ	.	8f	.	8dd	.	8aa	.
8AL	.	8.eLT	.	(4dd	.	8.ggLT	.
8A	.	.	.	.	.	.	.
.	.	16fJ	.	.	.	16aaJ	.
8A	.	8gL	.	8cc#L)	.	8bb-yL	.
8AJ	.	8gJ	.	8b-yJ	.	8cc#J	.
=78	=78	=78	=78	=78	=78	=78	=78
(8AL	.	(8fL	.	8aL	.	8ddL	.
8c#	.	8eJ	.	(8aJ	.	8eeJ	.
8d	.	8d)	.	8eeL	.	(8ggL	.
8G#J	.	8r	.	8ddJT)	.	8ffJT)	.
8A)	.	8r	.	4cc#	.	4ee	.
8r	.	(16aL	.	.	.	.	.
.	.	16g#J	.	.	.	.	.
4r	.	16aL	.	4r	.	4r	.
.	.	16g#y	.	.	.	.	.
.	.	16a	.	.	.	.	.
.	.	16g#yJ)	.	.	.	.	.
!!LO:LB
=79	=79	=79	=79	=79	=79	=79	=79
8AAL	.	4.a	.	4.A	.	4.A	.
8A	.	.	.	.	.	.	.
8A	.	.	.	.	.	.	.
8AJ	.	8f	.	8aa	.	8ddd	.
8AL	.	8.eLT	.	8.ggLT	.	(4ddd	.
8A	.	.	.	.	.	.	.
.	.	16fJ	.	16aaJ	.	.	.
8A	.	8gnL	.	8bb-yL	.	8ccc#L)	.
8AJ	.	8gJ	.	8cc#J	.	8bb-yJ	.
=80	=80	=80	=80	=80	=80	=80	=80
(8AL	.	8f	.	8ddL	.	8aaL	.
8c#	.	(4a	.	8eeJ	.	8ggJ	.
8d	.	.	.	(8eeL	.	(8ggL	.
8G#J	.	8bn)	.	8ddJT)	.	8ffJT)	.
4A)	.	4e	.	4cc#	.	16eeL	.
.	.	.	.	.	.	(16gg#	.
.	.	.	.	.	.	16aa	.
.	.	.	.	.	.	16gg#yJ	.
4r	.	4r	.	8r	.	16aaL	.
.	.	.	.	.	.	16gg#y	.
.	.	.	.	(16ffL	.	16aa	.
.	.	.	.	16ddJ)	.	16ffJ)	.
=81	=81	=81	=81	=81	=81	=81	=81
2r	.	4r	.	16cc#L	.	8ee	.
.	.	.	.	(16g#	.	.	.
.	.	.	.	16a	.	8r	.
.	.	.	.	16g#yJ	.	.	.
.	.	8r	.	16aL	.	4r	.
.	.	.	.	16g#y	.	.	.
.	.	(16fL	.	16a	.	.	.
.	.	16dJ)	.	16fJ)	.	.	.
4r	.	16c#L	.	8e	.	2r	.
.	.	(16G#	.	.	.	.	.
.	.	16A	.	8r	.	.	.
.	.	16G#yJ	.	.	.	.	.
8r	.	16AL	.	4r	.	.	.
.	.	16G#y	.	.	.	.	.
(16FL	.	16A	.	.	.	.	.
16DJ)	.	16FJ)	.	.	.	.	.
!!LO:LB
=82	=82	=82	=82	=82	=82	=82	=82
16C#L	.	8E	.	2r	.	2r	.
(16GG#	.	.	.	.	.	.	.
16AA	.	8r	.	.	.	.	.
16GG#yJ	.	.	.	.	.	.	.
16AAL	.	4r	.	.	.	.	.
16GG#y	.	.	.	.	.	.	.
16AA	.	.	.	.	.	.	.
16FFJ)	.	.	.	.	.	.	.
4.EE	.	4.e	.	4.gg	.	4.bb-y 4.cc# 4.e 4.G	.
(8E	.	(8G	.	(8B-y	.	(8c#	.
=83	=83	=83	=83	=83	=83	=83	=83
8FL)	.	8FL)	.	8AL)	.	8dL)	.
8FJ	.	8FJ	.	8AJ	.	8dJ	.
8r	.	8r	.	8r	.	8r	.
8F#	.	8F#	.	8A	.	8d	.
8r	.	8r	.	8r	.	8r	.
8G	.	8G	.	8B-y	.	8e-	.
8r	.	8r	.	8r	.	8r	.
8A	.	8c	.	8e-	.	8f#	.
=84	=84	=84	=84	=84	=84	=84	=84
(8cL	.	(8f#L	.	(8e-L	.	(8aL	.
8B-yJ)	.	8gJ)	.	8dJ)	.	8gJ)	.
8r	.	4r	.	8r	.	8r	.
(8G#	.	.	.	(8Bn	.	(8en	.
4A	.	2e	.	4c	.	8fnL	.
.	.	.	.	.	.	8f#	.
4Bn)	.	.	.	4d)	.	8g	.
.	.	.	.	.	.	8g#J)	.
=85	=85	=85	=85	=85	=85	=85	=85
(8dL	.	(8g#L	.	(8fL	.	(8bnL	.
8cJ)	.	8aJ)	.	8enJ)	.	8aJ)	.
8r	.	8r	.	4r	.	8r	.
(8C#	.	(8e	.	.	.	[8a	.
4D	.	4fn	.	[2a	.	(16aL_	.
.	.	.	.	.	.	8b-	.
.	.	.	.	.	.	8bn	.
4E)	.	4gn)	.	.	.	.	.
.	.	.	.	.	.	8cc	.
.	.	.	.	.	.	16cc#J)	.
=86	=86	=86	=86	=86	=86	=86	=86
(8FL	crescendo	(8aL	crescendo	8a]	crescendo	(16cc#yL_	crescendo
.	.	.	.	.	.	16dd	.
8C#	.	8g	.	4a	.	16ff	.
.	.	.	.	.	.	16eeJ	.
8D	.	8f	.	.	.	16ggL	.
.	.	.	.	.	.	16ff	.
8EJ)	.	8c#J)	.	(4a	.	16aa	.
.	.	.	.	.	.	16ggJ	.
(8FL	.	(4.d	.	.	.	16bbL	.
.	.	.	.	.	.	16aa	.
8G	.	.	.	8gL	.	16ccc	.
.	.	.	.	.	.	16bb-yJ	.
8B-y	.	.	.	8dd	.	16aaL	.
.	.	.	.	.	.	16gg	.
8GJ)	.	8e)	.	8b-yJ)	.	16ff	.
.	.	.	.	.	.	16eeJ)	.
=87	=87	=87	=87	=87	=87	=87	=87
4A	.	4A	.	(4f	.	(4dd	.
4r	.	(8.aL	.	8e)	.	8cc#)	.
.	.	.	.	8r	.	8r	.
.	.	16g#J)	.	.	.	.	.
2r	.	[4g#yT	.	4r	.	4r	.
.	.	(8.g#yL_	.	(8dd'L	.	(8ee'L	.
.	.	.	.	8dd'J)	.	8ee'J)	.
.	.	32f#	.	.	.	.	.
.	.	32g#yJ	.	.	.	.	.
!!LO:LB
=88	=88	=88	=88	=88	=88	=88	=88
4r	.	4a)	.	(8.cc#L	.	(8.eeL	.
.	.	.	.	16ddJ)	.	16ffJ)	.
(8.AAL	.	4r	.	8cc#y	.	8ee	.
.	.	.	.	8r	.	8r	.
16BB-yJ)	.	.	.	.	.	.	.
[4BB-yT	.	4r	.	4r	.	4r	.
(<8.BB-yL_	.	(8dL	.	(8ffL	.	(8dddL	.
.	.	8fnJ)	.	8ddJ)	.	8gg#J)	.
32AA	.	.	.	.	.	.	.
32BB-yJ	.	.	.	.	.	.	.
=89	=89	=89	=89	=89	=89	=89	=89
8AAL)	.	(4f	.	(4dd	.	(4gg#	.
(8AA	.	.	.	.	.	.	.
8A)	.	8e)	.	8cc#)	.	8aa)	.
8GJ	.	8r	.	8r	.	8r	.
(4G	.	2r	.	[2A	.	8r	.
.	.	.	.	.	.	(8dL	.
4F#)	.	.	.	.	.	8dd)	.
.	.	.	.	.	.	8ccnJ	.
=90	=90	=90	=90	=90	=90	=90	=90
8r	.	[2d	.	4A]	.	(4cc	.
(8GGL	.	.	.	.	.	.	.
8G)	.	.	.	(8GL	.	8b-yL)	.
8FnJ	.	.	.	8AJ)	.	8aJ	.
2E	.	8dL]	.	[2Bn	.	(4a	.
.	.	(8E	.	.	.	.	.
.	.	8e)	.	.	.	4g#)	.
.	.	8dJ	.	.	.	.	.
=91	=91	=91	=91	=91	=91	=91	=91
[2AA	.	(4d	.	8BL]	.	[2gn	.
.	.	.	.	(8e	.	.	.
.	.	8c#L)	.	8ee)	.	.	.
.	.	8BnJ	.	8ddJ	.	.	.
4AA_	.	(4A	.	(4dd	.	8gL]	.
.	.	.	.	.	.	(8ee	.
(<8.AAL_	.	4e)	.	8cc#L)	.	8aa)	.
.	.	.	.	8aJ	.	8ggJ	.
32BBn	.	.	.	.	.	.	.
32C#J	.	.	.	.	.	.	.
!!LO:LB
=92	=92	=92	=92	=92	=92	=92	=92
8D)	.	8d	.	8a	.	(>32eeL	.
.	.	.	.	.	.	32ffJ)	.
.	.	.	.	.	.	16r	.
8r	.	8r	.	8r	.	(32cc#L	.
.	.	.	.	.	.	32ddJ)	.
.	.	.	.	.	.	16r	.
8GG	.	8c#	.	8e	.	(32aL	.
.	.	.	.	.	.	32b-yJ)	.
.	.	.	.	.	.	16r	.
8r	.	8r	.	8r	.	(32f#L	.
.	.	.	.	.	.	32gJ)	.
.	.	.	.	.	.	16r	.
(8FFL	.	(8AL	.	(4d	.	(<8.aL	.
8GG	.	8G	.	.	.	.	.
.	.	.	.	.	.	16b-yJ)	.
8AA)	.	8F	.	4A)	.	(8dL	.
8AAJ	.	8EJ)	.	.	.	8c#J)	.
=93	=93	=93	=93	=93	=93	=93	=93
4DD	.	16r	.	16r	.	4d	.
.	.	16FL	.	(16AL	.	.	.
.	.	16F	.	16d)	.	.	.
.	.	16FJ	.	16dJ	.	.	.
4r	.	16FL	.	16dL	.	4r	.
.	.	16F	.	16d	.	.	.
.	.	16F	.	16d	.	.	.
.	.	16FJ	.	16dJ	.	.	.
4FF	.	16r	.	16r	.	(4dd	.
.	.	(16DL	.	(16AL	.	.	.
.	.	16A)	.	16d)	.	.	.
.	.	16AJ	.	16dJ	.	.	.
4r	.	16AL	.	16dL	.	16cc#L	.
.	.	16A	.	16d	.	16dd	.
.	.	16A	.	16d	.	16ff	.
.	.	16AJ	.	16dJ	.	16eeJ)	.
=94	=94	=94	=94	=94	=94	=94	=94
4GG	.	16r	.	16r	.	(8cc#L	.
.	.	(16DL	.	(16B-yL	.	.	.
.	.	16B-y)	.	16d)	.	8ddJ)	.
.	.	16B-yJ	.	16dJ	.	.	.
4r	.	16B-yL	.	16dL	.	4r	.
.	.	16B-y	.	16d	.	.	.
.	.	16B-y	.	16d	.	.	.
.	.	16B-yJ	.	16dJ	.	.	.
4AA	.	16r	.	16r	.	(8dd	.
.	.	(16FL	.	(16AL	.	.	.
.	.	16d)	.	16f)	.	4aa	.
.	.	16dJ	.	16fJ	.	.	.
4r	.	16dL	.	16fL	.	.	.
.	.	16d	.	16f	.	.	.
.	.	16d	.	16f	.	16ggL	.
.	.	16dJ	.	16fJ	.	16ffJ)	.
!!LO:LB
=95	=95	=95	=95	=95	=95	=95	=95
4BB-y	.	16r	.	16r	.	(8eeL	.
.	.	(16FL	.	(16dL	.	.	.
.	.	16d)	.	16f)	.	8ddJ)	.
.	.	16dJ	.	16fJ	.	.	.
4r	.	16dL	.	16fL	.	4r	.
.	.	16d	.	16f	.	.	.
.	.	16d	.	16f	.	.	.
.	.	16dJ	.	16fJ	.	.	.
4F	.	16r	.	16r	.	(8dd	.
.	.	(16AL	.	(16dL	.	.	.
.	.	16f)	.	16a)	.	4ddd	.
.	.	16fJ	.	16aJ	.	.	.
4r	.	16fL	.	16aL	.	.	.
.	.	16f	.	16a	.	.	.
.	.	16d	.	16a	.	8ff)	.
.	.	16dJ	.	16aJ	.	.	.
=96	=96	=96	=96	=96	=96	=96	=96
4G	.	16r	.	16r	.	(8ee-	.
.	.	(16B-yL	.	(16gL	.	.	.
.	.	16e-)	.	16b-y)	.	4gg	.
.	.	16e-yJ	.	16b-yJ	.	.	.
4r	.	16e-yL	.	16b-yL	.	.	.
.	.	16e-y	.	16b-y	.	.	.
.	.	16d	.	16g	.	8bb-y)	.
.	.	16dJ	.	16gJ	.	.	.
(4A	.	16r	.	16r	.	(8bb-y	.
.	.	(16c#L	.	(16eL	.	.	.
.	.	16d)	.	16f)	.	4aa	.
.	.	16dJ	.	16fJ	.	.	.
4AA)	.	16dL	.	16fL	.	.	.
.	.	16d	.	16f	.	.	.
.	.	16en	.	16g	.	8cc#)	.
.	.	16eJ	.	16gJ	.	.	.
=97	=97	=97	=97	=97	=97	=97	=97
4D	.	16dL	cresc.	16fL	cresc.	4dd	.
.	.	(16g	.	(16b-y	.	.	.
.	.	16f	.	16a	.	.	.
.	.	16eJ	.	16g#J	.	.	.
4r	.	16fL	.	16aL	.	4r	.
.	.	16e	.	16gn	.	.	.
.	.	16d	.	16f	.	.	.
.	.	16c#J)	.	16eJ)	.	.	.
4F	.	16d'L	.	8dL	.	[8ddL	.
.	.	16A'	.	.	.	.	.
.	.	16d'	.	8d	.	(24dd_	.
.	.	.	.	.	.	24cc#	.
.	.	16A'J	.	.	.	.	.
.	.	.	.	.	.	24ddJ	.
4r	.	16F'L	.	(8a	.	24ffL	.
.	.	.	.	.	.	24ee	.
.	.	16A'	.	.	.	.	.
.	.	.	.	.	.	24ddJ	.
.	.	16d'	.	8fJ)	.	24aaL	.
.	.	.	.	.	.	24gg	.
.	.	16A'J	.	.	.	.	.
.	.	.	.	.	.	24ffJ)	.
=98	=98	=98	=98	=98	=98	=98	=98
4G	.	16G'L	.	8r	.	(8eeL	.
.	.	16B-y'	.	.	.	.	.
.	.	16d'	.	8eL	.	8ddJ)	.
.	.	16B-y'J	.	.	.	.	.
4r	.	16G'L	.	(8b-y	.	4r	.
.	.	16B-y'	.	.	.	.	.
.	.	16d'	.	8gJ)	.	.	.
.	.	16B-y'J	.	.	.	.	.
4A	.	16A'L	.	8r	.	24dL	.
.	.	.	.	.	.	24cc#	.
.	.	16d'	.	.	.	.	.
.	.	.	.	.	.	24ddJ	.
.	.	16f'	.	8dL	.	24ee-L	.
.	.	.	.	.	.	24een	.
.	.	16d'J	.	.	.	.	.
.	.	.	.	.	.	24ffJ	.
4r	.	16A'L	.	(8dd	.	24ff#L	.
.	.	.	.	.	.	24gg	.
.	.	16d'	.	.	.	.	.
.	.	.	.	.	.	24gg#J	.
.	.	16f'	.	8aJ)	.	24aaL	.
.	.	.	.	.	.	24ggn	.
.	.	16d'J	.	.	.	.	.
.	.	.	.	.	.	24ffnJ	.
=99	=99	=99	=99	=99	=99	=99	=99
4B-y	.	16B-y'L	.	8r	.	(8eeL	.
.	.	16d'	.	.	.	.	.
.	.	16f'	.	8dL	.	8ddJ)	.
.	.	16d'J	.	.	.	.	.
4r	.	16B-y'L	.	(8dd	.	4r	.
.	.	16d'	.	.	.	.	.
.	.	16f'	.	8b-yJ)	.	.	.
.	.	16d'J	.	.	.	.	.
4F	.	16A'L	.	8r	.	24dL	.
.	.	.	.	.	.	24f	.
.	.	16d'	.	.	.	.	.
.	.	.	.	.	.	24aJ	.
.	.	16f'	.	8aL	.	24ddL	.
.	.	.	.	.	.	24ff	.
.	.	16d'J	.	.	.	.	.
.	.	.	.	.	.	24aaJ	.
4r	.	16A'L	.	(8ff	.	24dddL	.
.	.	.	.	.	.	24ccc	.
.	.	16d'	.	.	.	.	.
.	.	.	.	.	.	24bb-yJ	.
.	.	16f'	.	8ddJ)	.	24aaL	.
.	.	.	.	.	.	24gg	.
.	.	16d'J	.	.	.	.	.
.	.	.	.	.	.	24ffJ	.
!!LO:LB
=100	=100	=100	=100	=100	=100	=100	=100
4G	.	16B-yL	.	8r	.	(24eeL	.
.	.	.	.	.	.	24ff	.
.	.	16d	.	.	.	.	.
.	.	.	.	.	.	24dd#J	.
.	.	16e	.	8B-yL	.	24eeL)	.
.	.	.	.	.	.	24gg	.
.	.	16dJ	.	.	.	.	.
.	.	.	.	.	.	24ff#J	.
4r	.	16B-yL	.	(8b-y	.	24ggL	.
.	.	.	.	.	.	24ffn	.
.	.	16d	.	.	.	.	.
.	.	.	.	.	.	24eeJ	.
.	.	16e	.	8gJ)	.	24ddL	.
.	.	.	.	.	.	24cc	.
.	.	16dJ	.	.	.	.	.
.	.	.	.	.	.	24b-yJ	.
8AL	.	8d	.	8f	.	(16aL	.
.	.	.	.	.	.	16aaJ)	.
8B-y	.	(4B-y	.	(4d	.	(32ggL	.
.	.	.	.	.	.	32ff	.
.	.	.	.	.	.	32ee	.
.	.	.	.	.	.	32ddJ)	.
8G	.	.	.	.	.	(8.eeLT	.
8AJ	.	16AL	.	8c#)	.	.	.
.	.	16GJ)	.	.	.	32dd	.
.	.	.	.	.	.	32eeJ)	.
=101	=101	=101	=101	=101	=101	=101	=101
(8D	.	(4F	.	(4d	.	4dd	.
4C)	.	.	.	.	.	.	.
.	.	4F#)	.	4e-)	.	4r	.
(16.BB-yL	.	.	.	.	.	.	.
32AAJ)	.	.	.	.	.	.	.
8BB-yL	.	8GL	.	8dL	.	2r	.
8AA'	.	8c'	.	8f#'	.	.	.
8BB-y'	.	8d'	.	8g'	.	.	.
8F#'J	.	8e-'J	.	8a'J	.	.	.
=102	=102	=102	=102	=102	=102	=102	=102
8G'L	cresc.	8d'L	cresc.	8b-y'L	cresc.	1r	.
8Fn'	.	8a-'	.	8bn'	.	.	.
8E'	.	8g'	.	8cc'	.	.	.
8G'J	.	8b-y'J	.	8cc#'J	.	.	.
(8FL	.	8anL	.	(>16.ddL	.	.	.
.	.	.	.	32a)	.	.	.
8G)	.	(16.g	.	(>16.b	.	.	.
.	.	32eJ)	.	32gJ)	.	.	.
8A	.	(8dL	.	(8fL	.	.	.
8AAJ	.	8c#J)	.	8eJ)	.	.	.
!!LO:LB
=103	=103	=103	=103	=103	=103	=103	=103
(8D	.	(8d	.	(4d	.	(4dd	.
4cn)	.	4a)	.	.	.	.	.
.	.	.	.	4e-)	.	4ee-)	.
(16.B-yL	.	(16.gL	.	.	.	.	.
32AJ)	.	32f#J)	.	.	.	.	.
8B-yL	.	8gL	.	8dL	.	8ddL	.
8A'	.	8cn'	.	8f#'	.	8ff#'	.
8B-y'	.	8d'	.	8g'	.	8gg'	.
8F#'J	.	8e-'J	.	8a'J	.	8aa'J	.
=104	=104	=104	=104	=104	=104	=104	=104
8G'L	cresc.	8d'L	cresc.	8b-y'L	cresc.	8bb-y'L	cresc.
8Fn'	.	8a-'	.	8bn'	.	8bbn'	.
8E'	.	8g'	.	8cc'	.	8ccc'	.
8G'J	.	8b-y'J	.	8cc#'J	.	8ccc#'J	.
(8FL	.	8anL	.	(>16.ddL	.	(16.dddL	.
.	.	.	.	32a)	.	32aa)	.
8G)	.	(16.g	.	(>16.b	.	(16.bb	.
.	.	32eJ)	.	32gJ)	.	32ggJ)	.
8A	.	(8dL	.	(8fL	.	(8ffL	.
8AAJ	.	8c#J)	.	8eJ)	.	8eeJ)	.
=105	=105	=105	=105	=105	=105	=105	=105
8D	.	8d	.	(24dL	.	8dd	.
.	.	.	.	24f	.	.	.
.	.	.	.	24a)	.	.	.
8r	.	8r	.	24a'	.	8r	.
.	.	.	.	24a'	.	.	.
.	.	.	.	24a'J	.	.	.
4r	.	8g'L	.	24aL	.	8cc#'L	.
.	.	.	.	24a	.	.	.
.	.	.	.	24a	.	.	.
.	.	8g'J	.	24a	.	8cc#y'J	.
.	.	.	.	24a	.	.	.
.	.	.	.	24aJ	.	.	.
2r	.	8f'L	.	24aL	.	8dd'L	.
.	.	.	.	24a	.	.	.
.	.	.	.	24a	.	.	.
.	.	8f'	.	24a	.	8dd'	.
.	.	.	.	24a	.	.	.
.	.	.	.	24aJ	.	.	.
.	.	8c#'	.	24aL	.	8ee'	.
.	.	.	.	24a	.	.	.
.	.	.	.	24a	.	.	.
.	.	8c#y'J	.	24a	.	(8eeJT	.
.	.	.	.	24a	.	.	.
.	.	.	.	24aJ	.	.	.
!!LO:LB
=106	=106	=106	=106	=106	=106	=106	=106
1r	.	8d'L	.	24aL	.	8ffL)	.
.	.	.	.	24dd	.	.	.
.	.	.	.	24dd	.	.	.
.	.	8cn'	.	24dd	.	8ff#'	.
.	.	.	.	24dd	.	.	.
.	.	.	.	24ddJ	.	.	.
.	.	8Bn'	.	24ddL	.	8gg'	.
.	.	.	.	24dd	.	.	.
.	.	.	.	24dd	.	.	.
.	.	8B-'J	.	24dd	.	8gg#'J	.
.	.	.	.	24dd	.	.	.
.	.	.	.	24ddJ	.	.	.
.	.	8A'L	.	24ddL	.	(16.aaL	.
.	.	.	.	24dd	.	.	.
.	.	.	.	24dd	.	.	.
.	.	.	.	.	.	32ff)	.
.	.	8G'	.	24dd	.	(16.bb-y	.
.	.	.	.	24dd	.	.	.
.	.	.	.	24ddJ	.	.	.
.	.	.	.	.	.	32ggJ)	.
.	.	8A'	.	(24ddL	.	(8ffL	.
.	.	.	.	24ee	.	.	.
.	.	.	.	24dd	.	.	.
.	.	8A'J	.	24cc#	.	8eeJT)	.
.	.	.	.	24bn	.	.	.
.	.	.	.	24cc#yJ)	.	.	.
=107	=107	=107	=107	=107	=107	=107	=107
4r	.	(24DL	.	8dd	.	4dd	.
.	.	24F	.	.	.	.	.
.	.	24A)	.	.	.	.	.
.	.	24A	.	8r	.	.	.
.	.	24A	.	.	.	.	.
.	.	24AJ	.	.	.	.	.
8G'L	.	24AL	.	8c#'L	.	4r	.
.	.	24A	.	.	.	.	.
.	.	24A	.	.	.	.	.
8G'J	.	24A	.	8c#y'J	.	.	.
.	.	24A	.	.	.	.	.
.	.	24AJ	.	.	.	.	.
8F'L	.	24AL	.	8d'L	.	2r	.
.	.	24A	.	.	.	.	.
.	.	24A	.	.	.	.	.
8F'	.	24A	.	8d'	.	.	.
.	.	24A	.	.	.	.	.
.	.	24AJ	.	.	.	.	.
8C#'	.	24AL	.	8e'	.	.	.
.	.	24A	.	.	.	.	.
.	.	24A	.	.	.	.	.
8C#y'J	.	24A	.	(8eJT	.	.	.
.	.	24A	.	.	.	.	.
.	.	24AJ	.	.	.	.	.
=108	=108	=108	=108	=108	=108	=108	=108
(8DL	.	24AL	.	(8fL)	.	1r	.
.	.	24d	.	.	.	.	.
.	.	24d	.	.	.	.	.
8CnJ)	.	24d	.	8f#J)	.	.	.
.	.	24d	.	.	.	.	.
.	.	24dJ	.	.	.	.	.
4r	.	24dL	.	4r	.	.	.
.	.	24d	.	.	.	.	.
.	.	24d	.	.	.	.	.
.	.	24d	.	.	.	.	.
.	.	24d	.	.	.	.	.
.	.	24dJ	.	.	.	.	.
(8BBnL	.	24dL	.	(8gL	.	.	.
.	.	24d	.	.	.	.	.
.	.	24d	.	.	.	.	.
8BB-J)	.	24d	.	8g#J)	.	.	.
.	.	24d	.	.	.	.	.
.	.	24dJ	.	.	.	.	.
4r	.	24dL	.	4r	.	.	.
.	.	24d	.	.	.	.	.
.	.	24d	.	.	.	.	.
.	.	24d	.	.	.	.	.
.	.	24d	.	.	.	.	.
.	.	24dJ	.	.	.	.	.
=109	=109	=109	=109	=109	=109	=109	=109
8AA'L	.	24dL	.	(16.aL	.	2r	.
.	.	24d	.	.	.	.	.
.	.	24d	.	.	.	.	.
.	.	.	.	32f)	.	.	.
8GG'	.	24d	.	(16.b-y	.	.	.
.	.	24d	.	.	.	.	.
.	.	24dJ	.	.	.	.	.
.	.	.	.	32gJ)	.	.	.
8AA	.	(24dL	.	(8fL	.	.	.
.	.	24e	.	.	.	.	.
.	.	24d	.	.	.	.	.
8AAJ	.	24c#	.	8eJT)	.	.	.
.	.	24Bn	.	.	.	.	.
.	.	24c#yJ)	.	.	.	.	.
4DD	.	4d	.	4d	.	24r	.
.	.	.	.	.	.	(24ddL	.
.	.	.	.	.	.	24ff	.
.	.	.	.	.	.	24aa)	.
.	.	.	.	.	.	24aa'	.
.	.	.	.	.	.	24aa'J	.
8r	.	8r	.	8r	.	8aa	.
8A	.	(16.eL	.	(16.ggL	.	8r	.
.	.	32c#yJ)	.	32eeJ)	.	.	.
!!LO:LB
=110	=110	=110	=110	=110	=110	=110	=110
4D	.	4d	.	4dd	.	24r	.
.	.	.	.	.	.	(24dL	.
.	.	.	.	.	.	24f	.
.	.	.	.	.	.	24a)	.
.	.	.	.	.	.	24a'	.
.	.	.	.	.	.	24a'J	.
8r	.	8r	.	8r	.	8a	.
8AA	.	(16.EL	.	(16.gL	.	8r	.
.	.	32C#J)	.	32eJ)	.	.	.
(4.DD	.	8DL	.	8dL	.	24r	.
.	.	.	.	.	.	(24AL	.
.	.	.	.	.	.	24d	.
.	.	(8D'J	.	(8A'J	.	24f)	.
.	.	.	.	.	.	24f'	.
.	.	.	.	.	.	24f'J	.
.	.	8D')	.	8A')	.	8f'	.
8D)	.	8r	.	8r	.	8r	.
!!LO:LB
=111	=111	=111	=111	=111	=111	=111	=111
(8EnL	scen	8r	scendo	8r	scendo	24r	scen
.	.	.	.	.	.	(24G#L	.
.	.	.	.	.	.	24d	.
8D	.	(8E'L	.	(8Bn'L	.	24g#)	.
.	.	.	.	.	.	24g#y'	.
.	.	.	.	.	.	24g#y'J	.
8C#	.	8E'J)	.	8B'J)	.	8g#y	.
8DJ)	.	8r	.	8r	.	8r	.
(4.AA	.	8r	.	8r	.	24r	.
.	.	.	.	.	.	(24AL	.
.	.	.	.	.	.	24d	.
.	.	(8F'L	.	(8d'L	.	24a)	.
.	.	.	.	.	.	24a'	.
.	.	.	.	.	.	24a'J	.
.	.	8F'J)	.	8d'J)	.	8a'	.
8F)	.	8r	.	8r	.	8r	.
=112	=112	=112	=112	=112	=112	=112	=112
(4.GG	.	8r	.	8r	.	24r	.
.	.	.	.	.	.	(24GnL	.
.	.	.	.	.	.	24e-	.
.	.	8GL	.	8e-L	.	24b-y)	.
.	.	.	.	.	.	24b-y'	.
.	.	.	.	.	.	24b-y'J	.
.	.	(8G	.	(8e-y	.	8b-y'	.
8E-)	.	8B-yJ)	.	8gJ)	.	8r	.
(8C#L	.	(8AL	.	(4g	.	8r	.
8AA	.	8c#	.	.	.	8a	.
8BB-y	.	8d	.	4f)	.	8r	.
8FFJ)	.	8AJ)	.	.	.	8dd	.
!!LO:LB
=113	=113	=113	=113	=113	=113	=113	=113
(8GGL	.	(8B-yL	.	(8eL	.	8r	.
8BB-y)	.	8G	.	8dJ	.	8e	.
8AA	.	8A	.	4c#)	.	8r	.
8AAJ	.	8GJ)	.	.	.	8a	.
4D	.	4F	.	24dL	.	8d'L	.
.	.	.	.	24f	.	.	.
.	.	.	.	24aJ	.	.	.
.	.	.	.	24dL	.	8f'J	.
.	.	.	.	24f	.	.	.
.	.	.	.	24aJ	.	.	.
8r	.	8r	.	24dL	.	8a'L	.
.	.	.	.	24f	.	.	.
.	.	.	.	24aJ	.	.	.
8A	.	8A	.	24eL	.	(16cc#T	.
.	.	.	.	24g	.	.	.
.	.	.	.	.	.	32bn	.
.	.	.	.	24aJ	.	.	.
.	.	.	.	.	.	32cc#yJ	.
=114	=114	=114	=114	=114	=114	=114	=114
4D	.	4A	.	24dL	.	8ddL)	.
.	.	.	.	24f	.	.	.
.	.	.	.	24aJ	.	.	.
.	.	.	.	24dL	.	8aJ	.
.	.	.	.	24f	.	.	.
.	.	.	.	24aJ	.	.	.
8r	.	8r	.	24dL	.	8ffL	.
.	.	.	.	24f	.	.	.
.	.	.	.	24aJ	.	.	.
8AA	.	8c#	.	24eL	.	(16eeT	.
.	.	.	.	24g	.	.	.
.	.	.	.	.	.	32dd	.
.	.	.	.	24aJ	.	.	.
.	.	.	.	.	.	32eeJ	.
4D	.	4d	.	24dL	.	8ddL)	.
.	.	.	.	24f	.	.	.
.	.	.	.	24aJ	.	.	.
.	.	.	.	24dL	.	8ffJ	.
.	.	.	.	24f	.	.	.
.	.	.	.	24aJ	.	.	.
8r	.	8r	.	24dL	.	8aaL	.
.	.	.	.	24f	.	.	.
.	.	.	.	24aJ	.	.	.
8A	.	8a	.	24eL	.	8ccc#J 8ee 8a	.
.	.	.	.	24g	.	.	.
.	.	.	.	24aJ	.	.	.
=115	=115	=115	=115	=115	=115	=115	=115
4D	.	4a	.	4f 4A	.	4ddd 4dd 4d	.
4r	.	4r	.	4r	.	4r	.
2r	.	2r	.	2r	.	2r	.
==	==	==	==	==	==	==	==
*-	*-	*-	*-	*-	*-	*-	*-
!!!RDF**kern: > = above
!!!RDF**kern: < = below
